X:1
T:Abe's Retreat
T:Battle of Bull Run
M:C|
G:Key: A modal
S:Dwight Diller, mostly, but bits from all over
N:Good in cross-A tuning
Z:abc-transcription Josh Larios <hades@elsewhere.org>, 2020.01.13
Z:abc-copyright This transcription is licensed under a Creative Commons Attribution-ShareAlike 4.0 International License.
K:ADor
P:A
|: EG | "Am"A2 A2 Ac cd | eg ed e2 dc | A2 A2 c2 cc | "E"A2 E2 E2 EG | 
"Am"A2 A2 Ac cd | eg ed e2 eg | "E"a2 g2 eg ed |1 "Am"c2 A2 A2  :|2 "Am"cA2 cA2 |:
P:B
eg | "Am"a2 a2 ag e2 | ge ga e2 eg | a2 a2 b3a | "E"ge2 ge2 eg | 
"Am"a2 a2 ag e2 | ge ga e2 cd | "E"e2 A2 eg ed | "Am"cA2 cA2 :|

